X: 49
T: Bóg wieczny który wszystkim rozkazuje
C: Mikołaj Gomółka
%%abc-version 2.0
%%abcx-abcm2ps-target-version 5.9.1 (29 Sep 2008)
%%abc-creator hum2abc beta
%%abcx-conversion-date 2021/10/04 07:59:09
%%abc-edited-by Anna Matusӡewska
%%abcx-initial-encoding-date 2020-02-09
%%humdrum-veritas 1017130680
%%humdrum-veritas-data 383558890
%%linebreak <none>
%%barnumbers 0
L: 1/4
M: C|
N: Derived from pl-wn--sd-xvi-qu-273--050_gomolka-mikolaj--bog-wieczny-ktory-wszytkim-rozkazuje.krn
%%staves [1 2 3 4]
V: 1 clef=treble
V: 2
V: 3 clef=alto
V: 4
K: F
[V:1] G2>A2Bcde [I:setbarnb 3][|] 
[V:2] D4G2FG [|] 
[V:3] B,4G,2A,2 [|] 
[V:4] G,4_E,2D,2 [|] 
[V:1] f4e2e2 [|] 
[V:2] A2A2A2GA [|] 
[V:3] F,G,A,B,CDEF [|] 
[V:4] D,E,F,G,A,B,C2 [|] 
[V:1] d3c/B/cd2c [|] 
[V:2] B2G2A3G [|] 
[V:3] GFEDE4 [|] 
[V:4] G,2B,2A,4 [|] 
[V:1] d2d2d3d [|] 
[V:2] ^F2G2F2B2 [|] 
[V:3] D2D2D2F2 [|] 
[V:4] D,2G,2B,3B, [|] 
[V:1] _e2e2d4 [|] 
[V:2] B2>B2B4 [|] 
[V:3] G2>G2F4 [|] 
[V:4] E,2E,2B,,C,D,E, [|] 
[V:1] cB/c/dcBA/B/AG [|] 
[V:2] AG/A/BAGF/G/AG [|] 
[V:3] F2>E2D2CB, [|] 
[V:4] F,2D,2G,2C,2 [|] 
[V:1] d2>c2_B2c2 [|] 
[V:2] FG2FG2A2 [|] 
[V:3] A,G,A,2G,2C2 [|] 
[V:4] D,4G,2F,2 [|] 
[V:1] c2c2f4 [|] 
[V:2] G2A2B3A [|] 
[V:3] C2F2>E2D2 [|] 
[V:4] E,2F,E,D,C,B,,2 [|] 
[V:1] e2c2>B2A2 [|] 
[V:2] G2AGABc2 [|] 
[V:3] E2F2F2F2 [|] 
[V:4] C,2F,2>G,2A,B, [|] 
[V:1] G2F2GA2G [|] 
[V:2] c2ABc2C2 [|] 
[V:3] E2D2EF2E [|] 
[V:4] C2D2C4 [|] 
[V:1] A2A2A2e2 [|] 
[V:2] C2F2E2AG [|] 
[V:3] F2A,2C2^C2 [|] 
[V:4] F,2D,2A,,2A,,2 [|] 
[V:1] f2>e2dcBA [|] 
[V:2] FEF2F2F2 [|] 
[V:3] D2D2D3C [|] 
[V:4] D,4B,,2B,,2 [|] 
[V:1] G2G4F2 [|] 
[V:2] _E2E2D3C [|] 
[V:3] B,2C2A,4 [|] 
[V:4] _E,2C,2D,4 [|] 
[V:1] G8 [|] 
[V:2] =B,8 [|] 
[V:3] G,8 [|] 
[V:4] G,8 [|] 


